X:667
T: "Die Ursache"
N: Z1348
O: Europa, Mitteleuropa, Deutschland, Schwaben
R: Zech -, Schalks - Lied
M: 6/8
L: 1/16
K: G
B2 | B2B2B2B2B2B2 | B2cde2d2c2
B2 | A2A2A2A2A2A2 | A2Bcd2c2B2
A2 | B2B2B2B4B2 | B2cde2d2c2
B2 | A2A2A2A2B2^c2 | d2d2^c2d4
d=c | B2B2B2B2B4 | B2cde2d2c4
A2A2A2A2c4 | B2B2A2G4

